X:0044
T:The Lee Rigg.
N:unrelated to either of the two better-known tunes of this name
N:perhaps bar 4 ought to be |AEEA|
M:2/4
L:1/8
Q:1/4=112
I: :: ::
Z:Jack Campin * www.campin.me.uk * 2009
K:G
A|GEDE         |G2GA|(G/A/B) AG       |AFF
A|GEDE         |G2Gg|Te2     dB       |dGG:|
g|e2  dB       |dGGB| AA    (c/B/A/G/)|AEE
A|GEDE         |G2Gg| e2     dB       |dGGg|
  ee (g/f/e/d/)|eBgB| AA    (c/B/A/G/)|AEE
A|GEDE         |GABd| egdB            |dGG|]
<end>
<start>
